static/fa/svgs/solid/dice-d6.svg

<svg xmlns="http://www.w3.org/2000/svg" viewBox="0 0 448 512"><!--! Font Awesome Free 6.1.1 by @fontawesome - https://fontawesome.com License - https://fontawesome.com/license/free (Icons: CC BY 4.0, Fonts: SIL OFL 1.1, Code: MIT License) Copyright 2022 Fonticons, Inc.--><path d="M7.994 153.5c1.326 0 2.687.35 3.975 1.119L208 271.5v223.8c0 9.741-7.656 16.71-16.01 16.71-2.688 0-5.449-.721-8.05-2.303l-152.2-92.47C12.13 405.3 0 383.3 0 359.5V161.8c0-5.7 3.817-8.3 7.994-8.3zM426.2 117.2c0 2.825-1.352 5.647-4.051 7.248L224 242.6 25.88 124.4c-2.69-1.6-4.03-5.3-4.03-7.2 0-2.8 1.32-5.603 3.965-7.221l165.1-100.9C201.7 3.023 212.9 0 224 0s22.27 3.023 32.22 9.07l165.1 100.9c3.48 1.63 4.88 4.43 4.88 7.23zm13.8 36.3c4.2 0 8 2.6 8 8.3v197.7c0 23.75-12.12 45.75-31.78 57.69l-152.2 92.5C261.5 511.3 258.7 512 256 512c-8.3 0-16-7-16-16.7V271.5l196-116.9c1.3-.8 2.7-1.1 4-1.1z"/></svg>

<svg xmlns="http://www.w3.org/2000/svg" viewBox="0 0 448 512"><!--! Font Awesome Free 6.1.1 by @fontawesome - https://fontawesome.com License - https://fontawesome.com/license/free (Icons: CC BY 4.0, Fonts: SIL OFL 1.1, Code: MIT License) Copyright 2022 Fonticons, Inc. --><path d="M7.994 153.5c1.326 0 2.687 .3508 3.975 1.119L208 271.5v223.8c0 9.741-7.656 16.71-16.01 16.71c-2.688 0-5.449-.7212-8.05-2.303l-152.2-92.47C12.13 405.3 0 383.3 0 359.5v-197.7C0 156.1 3.817 153.5 7.994 153.5zM426.2 117.2c0 2.825-1.352 5.647-4.051 7.248L224 242.6L25.88 124.4C23.19 122.8 21.85 119.1 21.85 117.2c0-2.8 1.32-5.603 3.965-7.221l165.1-100.9C201.7 3.023 212.9 0 224 0s22.27 3.023 32.22 9.07l165.1 100.9C424.8 111.6 426.2 114.4 426.2 117.2zM440 153.5C444.2 153.5 448 156.1 448 161.8v197.7c0 23.75-12.12 45.75-31.78 57.69l-152.2 92.5C261.5 511.3 258.7 512 256 512C247.7 512 240 505 240 495.3V271.5l196-116.9C437.3 153.8 438.7 153.5 440 153.5z"/></svg>
